X: 3
T: Sporting Nell
R: reel
M: 4/4
L: 1/8
K: Dmix
AD~D2 A2dc|AcAG EG~G2|AD~D2 A2dc|AcGE ED~D2:|^cdec ~d3A|(3B^cd ef gedA|^cdec deed|^cAGE ED~D2|^cdec ~d3A|(3B^cd ef gedg|eaag eged|^cAGE ED~D2||


Tune 1781	Setting 15226

